X: 9986
T: Devil's Ladder
R: reel
M: 4/4
K: Amajor
c3A BAGB|AE~E2 AEcE|dBBA BAGF|Ee~e2 fedB
c3A BAGB|AE~E2 cE~E2|DF~F2 EFGA|BAGB A3B:|
cA~A2 cAeA|fd~d2 fdaf|ge~e2 deBe|ge~e2 deBe
cA~A2 cAeA|fd~d2 fdaf|gafg efdB|BAGB A3B
cA~A2 cAeA|fd~d2 fdaf|ge~e2 deBe|ge~e2 deBe
c3A BAGB|AE~E2 cE~E2|DF~F2 EFGA|BAGB A3B|

